X:1
T:Humors of Berehaven, The
T:Humors of Holystone
M:6/8
L:1/8
R:Jig
B:James Goodman music manuscript collection, Book 1, p. 29  (mid-19th century)
B: http://goodman.itma.ie/volume-one#?c=0&m=0&s=0&cv=32&z=146.42%2C1092.4235%2C9718.0531%2C3722.2222
Z:AK/Fiddler’s Companion
K:Ddor
c3 cAd|cBA GED|EFE EFD|EFE EFD|
c3 cAd|cBA GED|DED DED|DED DED:|
|:ABA GAG|FAF GED|EFE EFD|EFE EFD|
ABA GAG|FAF GED|DED DED |DED DED:|]

